symbolic/64x64/apps/soulseek.svg

<svg xmlns="http://www.w3.org/2000/svg" width="64" height="64" version="1">
 <path style="opacity:0.2" d="M 32,5 C 16.488,5 4,17.488 4,33 4,48.512 16.488,61 32,61 47.512,61 60,48.512 60,33 60,17.488 47.512,5 32,5 Z"/>
 <path style="fill:#4f4f4f" d="M 32,4 C 16.488,4 4,16.488 4,32 4,47.512 16.488,60 32,60 47.512,60 60,47.512 60,32 60,16.488 47.512,4 32,4 Z"/>
 <path style="opacity:0.2" d="m 29.472868,51 c -0.813254,-0.22564 -1.905896,-0.633306 -2.609588,-2.126162 -0.966154,-2.049646 -0.96459,-2.006622 -0.11856,-3.258164 1.173328,-1.735792 3.290802,-4.823208 3.290802,-5.665762 0,-0.53112 -0.526582,-0.949776 -1.831042,-1.455756 -2.810528,-1.090168 -6.620188,-2.933212 -8.583908,-4.382166 -2.405172,-1.774684 -4.651519,-5.102696 -5.351252,-7.420576 -0.491937,-1.629552 -0.328316,-1.98152 0.642845,-1.382828 5.095759,2.925252 6.688193,3.383472 11.738217,3.841418 3.13759,-0.13658 5.586466,-1.991024 5.463618,-4.199354 -0.10044,-1.665802 -1.202336,-3.083032 -1.870352,-5.215378 -0.376724,-1.20251 -0.16722,-1.623845 -0.09848,-2.085633 0.04736,-0.318282 0.16874,-0.610618 0.269666,-0.649639 0.5562,0.314542 0.925446,0.861332 1.459646,1.072276 1.264028,0.49914 2.597022,0.505913 3.93954,1.094644 1.372604,0.701962 1.983562,1.406544 2.289136,2.663892 0.21944,0.902936 0.819724,1.51269 1.43972,2.117128 0.29383,0.286452 0.534248,0.59564 0.534248,0.68708 0,0.464942 -1.517378,0.378806 -2.764934,0.02616 -1.09688,-0.31004 -1.410904,1.07919 -1.29819,2.082824 0.1687,2.668396 3.643068,2.173896 6.618396,2.405992 2.481348,0.19356 6.713372,-0.13244 9.92894,-1.51351 0.67344,-0.28924 1.320834,-0.505678 1.438674,-0.480972 -1.096788,4.698594 -5.813932,8.69884 -9.890508,10.412728 -2.010866,0.812728 -4.91409,1.739856 -5.78611,1.847756 -2.168058,0.26827 -2.911306,0.552054 -3.261782,1.245388 -0.399516,0.790306 -0.98673,4.428624 -1.204456,7.1955 -0.520776,2.31526 -2.885314,3.12581 -4.384246,3.143094 z"/>
 <path style="fill:#4895fb" d="m 29.472868,50 c -0.813254,-0.22564 -1.905896,-0.633306 -2.609588,-2.126162 -0.966154,-2.049646 -0.96459,-2.006622 -0.11856,-3.258164 1.173328,-1.735792 3.290802,-4.823208 3.290802,-5.665762 0,-0.53112 -0.526582,-0.949776 -1.831042,-1.455756 -2.810528,-1.090168 -6.620188,-2.933212 -8.583908,-4.382166 -2.405172,-1.774684 -4.651519,-5.102696 -5.351252,-7.420576 -0.491937,-1.629552 -0.328316,-1.98152 0.642845,-1.382828 5.095759,2.925252 6.688193,3.383472 11.738217,3.841418 3.13759,-0.13658 5.586466,-1.991024 5.463618,-4.199354 -0.10044,-1.665802 -1.202336,-3.083032 -1.870352,-5.215377 -0.376724,-1.202511 -0.16722,-1.623846 -0.09848,-2.085634 0.04736,-0.318282 0.16874,-0.610618 0.269666,-0.649639 0.5562,0.314542 0.925446,0.861332 1.459646,1.072276 1.264028,0.49914 2.597022,0.505913 3.93954,1.094645 1.372604,0.70196 1.983562,1.406544 2.289136,2.663891 0.21944,0.902936 0.819724,1.51269 1.43972,2.117128 0.29383,0.286452 0.534248,0.59564 0.534248,0.68708 0,0.464942 -1.517378,0.378806 -2.764934,0.02616 -1.09688,-0.31004 -1.410904,1.07919 -1.29819,2.082824 0.1687,2.668396 3.643068,2.173896 6.618396,2.405992 2.481348,0.19356 6.713372,-0.13244 9.92894,-1.51351 0.67344,-0.28924 1.320834,-0.505678 1.438674,-0.480972 -1.096788,4.698594 -5.813932,8.69884 -9.890508,10.412728 -2.010866,0.812728 -4.91409,1.739856 -5.78611,1.847756 -2.168058,0.26827 -2.911306,0.552054 -3.261782,1.245388 -0.399516,0.790306 -0.98673,4.428624 -1.204456,7.1955 -0.520776,2.31526 -2.885314,3.12581 -4.384246,3.143094 z"/>
 <path style="opacity:0.1;fill:#ffffff" d="M 32 4 C 16.488 4 4 16.488 4 32 C 4 32.11345 4.0112805 32.224113 4.0175781 32.335938 C 4.3691213 17.134181 16.710728 5 32 5 C 47.289272 5 59.630879 17.134181 59.982422 32.335938 C 59.98872 32.224113 60 32.11345 60 32 C 60 16.488 47.512 4 32 4 z"/>
 <path style="fill:#ffffff;opacity:0.1" d="M 30.414062 16 C 30.313136 16.039021 30.191891 16.332109 30.144531 16.650391 C 30.091625 17.005811 29.962439 17.345246 30.074219 18.027344 C 30.098706 17.895089 30.126284 17.772977 30.144531 17.650391 C 30.191891 17.332109 30.313136 17.039021 30.414062 17 C 30.970263 17.314542 31.3408 17.861322 31.875 18.072266 C 33.139028 18.571406 34.471935 18.577284 35.814453 19.166016 C 37.187057 19.867976 37.797942 20.572731 38.103516 21.830078 C 38.322252 22.73012 38.91923 23.338869 39.537109 23.941406 C 39.865917 23.906452 40.076172 23.807984 40.076172 23.634766 C 40.076172 23.543326 39.836799 23.233718 39.542969 22.947266 C 38.922973 22.342828 38.322956 21.733014 38.103516 20.830078 C 37.797942 19.572731 37.187057 18.867976 35.814453 18.166016 C 34.471935 17.577284 33.139028 17.571406 31.875 17.072266 C 31.3408 16.861322 30.970263 16.314542 30.414062 16 z M 14.332031 24.042969 C 13.987749 23.981542 13.947568 24.342488 14.119141 25.085938 C 14.255566 24.986307 14.511401 25.061569 14.912109 25.308594 C 20.007868 28.233846 21.600367 28.692445 26.650391 29.150391 C 29.787981 29.013811 32.236129 27.159502 32.113281 24.951172 C 32.106269 24.834871 32.084646 24.721628 32.068359 24.607422 C 31.728274 26.515341 29.470462 28.027632 26.650391 28.150391 C 21.600367 27.692445 20.007868 27.233846 14.912109 24.308594 C 14.669319 24.158921 14.476254 24.068701 14.332031 24.042969 z M 36.03125 25.863281 C 35.988862 26.157337 35.982309 26.464879 36.013672 26.744141 C 36.182372 29.412537 39.657485 28.918295 42.632812 29.150391 C 45.11416 29.343951 49.344979 29.017789 52.560547 27.636719 C 53.020727 27.439073 53.400579 27.308367 53.675781 27.232422 C 53.802312 26.877359 53.914987 26.520443 54 26.15625 C 53.88216 26.131544 53.233987 26.347479 52.560547 26.636719 C 49.344979 28.017789 45.11416 28.343951 42.632812 28.150391 C 39.70512 27.922011 36.300443 28.390282 36.03125 25.863281 z M 29.876953 39.507812 C 29.382192 40.736228 27.7344 43.15027 26.744141 44.615234 C 26.169896 45.464721 25.995886 45.729448 26.238281 46.445312 C 26.339449 46.22087 26.503523 45.971182 26.744141 45.615234 C 27.917469 43.879442 30.035156 40.791773 30.035156 39.949219 C 30.035156 39.79323 29.974163 39.649461 29.876953 39.507812 z"/>
</svg>

<svg xmlns="http://www.w3.org/2000/svg" width="64" height="64" version="1"><path style="opacity:.2" d="M32 5C16.488 5 4 17.488 4 33s12.488 28 28 28 28-12.488 28-28S47.512 5 32 5z"/><path style="fill:#4f4f4f" d="M32 4C16.488 4 4 16.488 4 32s12.488 28 28 28 28-12.488 28-28S47.512 4 32 4z"/><path style="opacity:.2" d="M29.473 51c-.813-.226-1.906-.633-2.61-2.126-.966-2.05-.964-2.007-.118-3.258 1.173-1.736 3.29-4.824 3.29-5.666 0-.531-.526-.95-1.83-1.456-2.811-1.09-6.62-2.933-8.584-4.382-2.406-1.775-4.652-5.103-5.352-7.42-.492-1.63-.328-1.982.643-1.383 5.096 2.925 6.688 3.383 11.738 3.841 3.138-.137 5.587-1.991 5.464-4.2-.1-1.665-1.202-3.082-1.87-5.215-.377-1.202-.168-1.624-.099-2.085.048-.319.169-.611.27-.65.556.315.925.861 1.46 1.072 1.264.5 2.597.506 3.939 1.095 1.373.702 1.984 1.406 2.29 2.664.219.903.819 1.513 1.439 2.117.294.286.534.596.534.687 0 .465-1.517.379-2.765.026-1.097-.31-1.41 1.08-1.298 2.083.169 2.668 3.643 2.174 6.618 2.406 2.482.194 6.714-.132 9.93-1.514.673-.289 1.32-.505 1.438-.48-1.097 4.698-5.814 8.698-9.89 10.412-2.011.813-4.915 1.74-5.787 1.848-2.168.268-2.91.552-3.261 1.245-.4.79-.987 4.429-1.205 7.196-.52 2.315-2.885 3.126-4.384 3.143z"/><path style="fill:#4895fb" d="M29.473 50c-.813-.226-1.906-.633-2.61-2.126-.966-2.05-.964-2.007-.118-3.258 1.173-1.736 3.29-4.824 3.29-5.666 0-.531-.526-.95-1.83-1.456-2.811-1.09-6.62-2.933-8.584-4.382-2.406-1.775-4.652-5.103-5.352-7.42-.492-1.63-.328-1.982.643-1.383 5.096 2.925 6.688 3.383 11.738 3.841 3.138-.137 5.587-1.991 5.464-4.2-.1-1.665-1.202-3.082-1.87-5.215-.377-1.202-.168-1.624-.099-2.085.048-.319.169-.611.27-.65.556.315.925.861 1.46 1.072 1.264.5 2.597.506 3.939 1.095 1.373.702 1.984 1.406 2.29 2.664.219.903.819 1.513 1.439 2.117.294.286.534.596.534.687 0 .465-1.517.379-2.765.026-1.097-.31-1.41 1.08-1.298 2.083.169 2.668 3.643 2.174 6.618 2.406 2.482.194 6.714-.132 9.93-1.514.673-.289 1.32-.505 1.438-.48-1.097 4.698-5.814 8.698-9.89 10.412-2.011.813-4.915 1.74-5.787 1.848-2.168.268-2.91.552-3.261 1.245-.4.79-.987 4.429-1.205 7.196-.52 2.315-2.885 3.126-4.384 3.143z"/><path style="opacity:.1;fill:#fff" d="M32 4C16.488 4 4 16.488 4 32c0 .113.011.224.018.336C4.369 17.134 16.71 5 32 5c15.29 0 27.63 12.134 27.982 27.336.007-.112.018-.223.018-.336C60 16.488 47.512 4 32 4z"/><path style="fill:#fff;opacity:.1" d="M30.414 16c-.1.039-.222.332-.27.65-.052.356-.182.695-.07 1.377.025-.132.052-.254.07-.377.048-.318.17-.611.27-.65.556.315.927.861 1.461 1.072 1.264.5 2.597.505 3.94 1.094 1.372.702 1.983 1.407 2.289 2.664.218.9.815 1.509 1.433 2.111.329-.035.54-.133.54-.306 0-.092-.24-.401-.534-.688-.62-.604-1.22-1.214-1.44-2.117-.305-1.257-.916-1.962-2.289-2.664-1.342-.589-2.675-.595-3.939-1.094-.534-.21-.905-.757-1.46-1.072zm-16.082 8.043c-.344-.061-.384.3-.213 1.043.137-.1.392-.024.793.223 5.096 2.925 6.688 3.383 11.738 3.841 3.138-.136 5.586-1.99 5.463-4.199-.007-.116-.028-.23-.045-.344-.34 1.908-2.598 3.42-5.418 3.543-5.05-.458-6.642-.916-11.738-3.841-.243-.15-.436-.24-.58-.266zm21.7 1.82a3.536 3.536 0 0 0-.018.881c.168 2.669 3.643 2.174 6.619 2.406 2.481.194 6.712-.132 9.928-1.513.46-.198.84-.329 1.115-.405.126-.355.239-.712.324-1.076-.118-.024-.766.191-1.44.48-3.215 1.382-7.446 1.708-9.927 1.514-2.928-.228-6.333.24-6.602-2.287zm-6.155 13.645c-.495 1.228-2.143 3.642-3.133 5.107-.574.85-.748 1.114-.506 1.83.101-.224.266-.474.506-.83 1.173-1.736 3.291-4.823 3.291-5.666 0-.156-.06-.3-.158-.441z"/></svg>
